icons/mobile/16/svg/shield-slash-fill-16.svg

<!-- This Source Code Form is subject to the terms of the Mozilla Public
   - License, v. 2.0. If a copy of the MPL was not distributed with this
   - file, You can obtain one at http://mozilla.org/MPL/2.0/. -->
<svg width="16" height="16" viewBox="0 0 16 16" fill="none" xmlns="http://www.w3.org/2000/svg">
    <path fill-rule="evenodd" clip-rule="evenodd" d="M2.88394 2.00006L13.9999 13.1161L13.1161 13.9999L2.00006 2.88394L2.88394 2.00006Z" fill="black" />
    <path d="M13.016 8.457C12.899 9.087 12.689 9.634 12.438 10.139L5.44901 3.15L7.24101 2.181C7.68501 1.94 8.22001 1.94 8.66601 2.179L12.717 4.359C13.291 4.668 13.6 5.313 13.481 5.954L13.016 8.457Z" fill="black" />
    <path d="M3.28001 4.324L3.38388 4.26777L11.1298 12.0137C10.4907 12.708 9.76169 13.3033 8.98701 13.741C8.68301 13.913 8.34101 14 8.00001 14C7.66001 14 7.31901 13.914 7.01601 13.743C5.80401 13.058 4.68901 12.002 3.87501 10.769C3.44901 10.124 3.15101 9.344 2.98601 8.45L2.51901 5.915C2.40101 5.275 2.70901 4.633 3.28001 4.324Z" fill="black" />
</svg>

<!-- This Source Code Form is subject to the terms of the Mozilla Public
   - License, v. 2.0. If a copy of the MPL was not distributed with this
   - file, You can obtain one at http://mozilla.org/MPL/2.0/. -->
<svg xmlns="http://www.w3.org/2000/svg" width="16" height="16" fill="none" viewBox="0 0 16 16">
    <path fill="#000" fill-rule="evenodd" d="M2.884 2 14 13.116l-.884.884L2 2.884z" clip-rule="evenodd" />
    <path fill="#000" d="M13.016 8.457a6.3 6.3 0 0 1-.578 1.682L5.449 3.15l1.792-.969a1.5 1.5 0 0 1 1.425-.002l4.051 2.18a1.5 1.5 0 0 1 .764 1.595zM3.28 4.324l.104-.056 7.746 7.746a8.9 8.9 0 0 1-2.143 1.727 2.01 2.01 0 0 1-1.971.002c-1.212-.685-2.327-1.741-3.141-2.974-.426-.645-.724-1.425-.889-2.319l-.467-2.535a1.5 1.5 0 0 1 .761-1.591" />
</svg>
